public/images/brands/lineicons.svg

<svg fill="none" height="29" viewBox="0 0 179 29" width="179" xmlns="http://www.w3.org/2000/svg"><g fill="#788293"><path d="m43.1454 2.23047h-4.2047v24.00593h14.2641v-3.8694h-10.0594z"/><path d="m58.0318 6.75993c1.314 0 2.4013-1.08735 2.4013-2.43784 0-1.3502-1.0873-2.3924-2.4013-2.3924-1.3775 0-2.4651 1.05111-2.4651 2.4016 0 1.3502 1.0965 2.42864 2.4651 2.42864zm-1.9938 19.48407h4.0055v-16.2399h-4.0055z"/><path d="m68.1975 26.2353v-8.7359c0-2.6282 1.5044-4.3407 3.9782-4.3407 2.0754 0 3.4164 1.3139 3.4164 4.0416v9.035h4.0058v-9.9955c0-4.205-2.1025-6.73345-6.1808-6.73345-2.202 0-4.1685.95165-5.1833 2.60085l-.3354-2.1025h-3.7155v16.2398h4.0054z"/><path d="m90.7991 26.6705c4.2321 0 7.1953-2.1296 7.8841-5.6913h-3.7156c-.4621 1.5409-1.9029 2.4016-4.1142 2.4016-2.6644 0-4.1688-1.45-4.4678-4.3046l12.2162-.0362v-1.2144c0-5.0658-3.0904-8.31925-7.9569-8.31925-4.8664 0-8.0836 3.51625-8.0836 8.60935 0 5.0928 3.3894 8.5458 8.2197 8.5458zm-.0998-13.8653c2.4016 0 3.9422 1.477 3.9422 3.7156h-8.1472c.3896-2.4289 1.8396-3.7156 4.205-3.7156z"/><path d="m103.822 6.75993c1.314 0 2.402-1.08735 2.402-2.43784 0-1.3502-1.088-2.3924-2.402-2.3924-1.377 0-2.456 1.05111-2.456 2.4016 0 1.3502 1.07 2.42864 2.456 2.42864zm-2.012 19.48407h4.006v-16.2399h-4.006z"/><path d="m109.017 18.0966c0 5.1563 3.217 8.5728 8.147 8.5728 4.232 0 7.394-2.6009 7.884-6.3797h-4.042c-.426 1.7761-1.84 2.7639-3.842 2.7639-2.565 0-4.142-1.9032-4.142-4.957 0-3.0542 1.713-4.9936 4.268-4.9936 1.904 0 3.254.9516 3.716 2.8005h4.006c-.426-3.9152-3.453-6.38006-7.885-6.38006-4.784 0-8.11 3.55246-8.11 8.57316z"/><path d="m127.069 18.0971c0 5.0657 3.643 8.5458 8.682 8.5458s8.673-3.4801 8.673-8.5458c0-5.0661-3.644-8.54583-8.673-8.54583-5.021 0-8.682 3.47973-8.682 8.54583zm4.015 0c0-2.9636 1.903-4.9571 4.667-4.9571s4.667 2.0027 4.667 4.9571c0 2.9543-1.903 4.957-4.667 4.957s-4.667-2.0027-4.667-4.957z"/><path d="m151.596 26.2353v-8.7359c0-2.6282 1.505-4.3407 3.979-4.3407 2.075 0 3.416 1.3139 3.416 4.0416v9.035h4.006v-9.9955c0-4.205-2.102-6.73345-6.181-6.73345-2.202 0-4.168.95165-5.183 2.60085l-.336-2.1025h-3.715v16.2398h4.006z"/><path d="m178.903 21.3497c0 3.2808-2.791 5.3289-6.797 5.3289-4.005 0-6.597-2.175-6.606-5.347h3.797c.027 1.4137 1.087 2.3018 2.918 2.3018 1.83 0 2.891-.7612 2.891-1.9392 0-.8248-.417-1.4137-1.867-1.7399l-2.927-.6979c-2.918-.6525-4.332-2.039-4.332-4.631 0-3.1898 2.682-5.10196 6.434-5.10196s6.099 2.11176 6.135 5.26536h-3.806c-.018-1.3775-.951-2.2656-2.492-2.2656s-2.492.725-2.492 1.9303c0 .9243.734 1.5043 2.102 1.8396l2.928.6977c2.519.5709 3.896 1.6855 4.078 3.8243l.018.5438z"/><path d="m23.5278 25.5726c1.0512-1.0511 1.0512-2.7639 0-3.8153l-18.32405-18.32394c-1.05123-1.05112-2.76399-1.05112-3.81522 0-1.051244 1.05111-1.051244 2.75504 0 3.81536l18.32407 18.32388c1.0512 1.0512 2.764 1.0512 3.8152 0z"/><path d="m23.0372 12.044c1.0513-1.0514 1.0513-2.76428 0-3.81539l-7.4311-7.440058c-1.0512-1.051403-2.764-1.051403-3.8152 0-1.0513 1.051118-1.0513 2.763958 0 3.815068l7.4401 7.44038c1.0513 1.0511 2.7641 1.0511 3.8153 0z"/><path d="m13.1383 28.2117c1.0513-1.0511 1.0513-2.7639 0-3.815l-7.44015-7.4404c-1.05123-1.0511-2.76401-1.0511-3.81524 0-1.051235 1.0511-1.051235 2.764 0 3.8154l7.44017 7.44c1.05122 1.0512 2.76402 1.0512 3.81522 0z"/></g></svg>

<svg width="179" height="29" viewBox="0 0 179 29" fill="none" xmlns="http://www.w3.org/2000/svg">
<path d="M43.1454 2.23047H38.9407V26.2364H53.2048V22.367H43.1454V2.23047Z" fill="#788293"/>
<path d="M58.0318 6.75993C59.3458 6.75993 60.4331 5.67258 60.4331 4.32209C60.4331 2.97189 59.3458 1.92969 58.0318 1.92969C56.6543 1.92969 55.5667 2.9808 55.5667 4.33129C55.5667 5.68149 56.6632 6.75993 58.0318 6.75993ZM56.038 26.244H60.0435V10.0041H56.038V26.244Z" fill="#788293"/>
<path d="M68.1975 26.2353V17.4994C68.1975 14.8712 69.7019 13.1587 72.1757 13.1587C74.2511 13.1587 75.5921 14.4726 75.5921 17.2003V26.2353H79.5979V16.2398C79.5979 12.0348 77.4954 9.50635 73.4171 9.50635C71.2151 9.50635 69.2486 10.458 68.2338 12.1072L67.8984 10.0047H64.1829V26.2445H68.1883L68.1975 26.2353Z" fill="#788293"/>
<path d="M90.7991 26.6705C95.0312 26.6705 97.9944 24.5409 98.6832 20.9792H94.9676C94.5055 22.5201 93.0647 23.3808 90.8534 23.3808C88.189 23.3808 86.6846 21.9308 86.3856 19.0762L98.6018 19.04V17.8256C98.6018 12.7598 95.5114 9.50635 90.6449 9.50635C85.7785 9.50635 82.5613 13.0226 82.5613 18.1157C82.5613 23.2085 85.9507 26.6615 90.781 26.6615L90.7991 26.6705ZM90.6993 12.8052C93.1009 12.8052 94.6415 14.2822 94.6415 16.5208H86.4943C86.8839 14.0919 88.3339 12.8052 90.6993 12.8052Z" fill="#788293"/>
<path d="M103.822 6.75993C105.136 6.75993 106.224 5.67258 106.224 4.32209C106.224 2.97189 105.136 1.92969 103.822 1.92969C102.445 1.92969 101.366 2.9808 101.366 4.33129C101.366 5.68149 102.436 6.75993 103.822 6.75993ZM101.81 26.244H105.816V10.0041H101.81V26.244Z" fill="#788293"/>
<path d="M109.017 18.0966C109.017 23.2529 112.234 26.6694 117.164 26.6694C121.396 26.6694 124.558 24.0685 125.048 20.2897H121.006C120.58 22.0658 119.166 23.0536 117.164 23.0536C114.599 23.0536 113.022 21.1504 113.022 18.0966C113.022 15.0424 114.735 13.103 117.29 13.103C119.194 13.103 120.544 14.0546 121.006 15.9035H125.012C124.586 11.9883 121.559 9.52344 117.127 9.52344C112.343 9.52344 109.017 13.0759 109.017 18.0966Z" fill="#788293"/>
<path d="M127.069 18.0971C127.069 23.1628 130.712 26.6429 135.751 26.6429C140.79 26.6429 144.424 23.1628 144.424 18.0971C144.424 13.031 140.78 9.55127 135.751 9.55127C130.73 9.55127 127.069 13.031 127.069 18.0971ZM131.084 18.0971C131.084 15.1335 132.987 13.14 135.751 13.14C138.515 13.14 140.418 15.1427 140.418 18.0971C140.418 21.0514 138.515 23.0541 135.751 23.0541C132.987 23.0541 131.084 21.0514 131.084 18.0971Z" fill="#788293"/>
<path d="M151.596 26.2353V17.4994C151.596 14.8712 153.101 13.1587 155.575 13.1587C157.65 13.1587 158.991 14.4726 158.991 17.2003V26.2353H162.997V16.2398C162.997 12.0348 160.895 9.50635 156.816 9.50635C154.614 9.50635 152.648 10.458 151.633 12.1072L151.297 10.0047H147.582V26.2445H151.588L151.596 26.2353Z" fill="#788293"/>
<path d="M178.903 21.3497C178.903 24.6305 176.112 26.6786 172.106 26.6786C168.101 26.6786 165.509 24.5036 165.5 21.3316H169.297C169.324 22.7453 170.384 23.6334 172.215 23.6334C174.045 23.6334 175.106 22.8722 175.106 21.6942C175.106 20.8694 174.689 20.2805 173.239 19.9543L170.312 19.2564C167.394 18.6039 165.98 17.2174 165.98 14.6254C165.98 11.4356 168.662 9.52344 172.414 9.52344C176.166 9.52344 178.513 11.6352 178.549 14.7888H174.743C174.725 13.4113 173.792 12.5232 172.251 12.5232C170.71 12.5232 169.759 13.2482 169.759 14.4535C169.759 15.3778 170.493 15.9578 171.861 16.2931L174.789 16.9908C177.308 17.5617 178.685 18.6763 178.867 20.8151L178.885 21.3589L178.903 21.3497Z" fill="#788293"/>
<path d="M23.5278 25.5726C24.579 24.5215 24.579 22.8087 23.5278 21.7573L5.20375 3.43336C4.15252 2.38224 2.43976 2.38224 1.38853 3.43336C0.337286 4.48447 0.337286 6.1884 1.38853 7.24872L19.7126 25.5726C20.7638 26.6238 22.4766 26.6238 23.5278 25.5726Z" fill="#788293"/>
<path d="M23.0372 12.044C24.0885 10.9926 24.0885 9.27972 23.0372 8.22861L15.6061 0.788552C14.5549 -0.262851 12.8421 -0.262851 11.7909 0.788552C10.7396 1.83967 10.7396 3.55251 11.7909 4.60362L19.231 12.044C20.2823 13.0951 21.9951 13.0951 23.0463 12.044H23.0372Z" fill="#788293"/>
<path d="M13.1383 28.2117C14.1896 27.1606 14.1896 25.4478 13.1383 24.3967L5.69815 16.9563C4.64692 15.9052 2.93414 15.9052 1.88291 16.9563C0.831675 18.0074 0.831675 19.7203 1.88291 20.7717L9.32308 28.2117C10.3743 29.2629 12.0871 29.2629 13.1383 28.2117Z" fill="#788293"/>
</svg>
